usr/share/icons/biglinux-icons-material-dark/22/actions/step_object_CircularMotor.svg

<svg xmlns="http://www.w3.org/2000/svg" viewBox="0 0 22 22">
  <defs id="defs3051">
    <style type="text/css" id="current-color-scheme">
      .ColorScheme-Text {
        color:#dedede;
      }
      </style>
  </defs>
 <path 
     style="fill:currentColor;fill-opacity:1;stroke:none" 
     d="M 11 3 C 10.32479 3.004 9.65279 3.092995 9 3.265625 L 9 4.2988281 L 9 4.3105469 A 7 7 0 0 0 7.6835938 4.8554688 L 7.6757812 4.8476562 L 6.9433594 4.1152344 C 5.7764094 4.8032844 4.8032844 5.7764094 4.1152344 6.9433594 L 4.6367188 7.4648438 L 4.8554688 7.6835938 A 7 7 0 0 0 4.3085938 9 L 4.2949219 9 L 3.2597656 9 C 3.0891456 9.65304 3.00187 10.32505 3 11 C 3.004 11.67521 3.093005 12.34721 3.265625 13 L 4.2988281 13 L 4.3105469 13 A 7 7 0 0 0 4.8554688 14.316406 L 4.6367188 14.535156 L 4.1152344 15.056641 C 4.8032844 16.223601 5.7763994 17.196716 6.9433594 17.884766 L 7.4648438 17.363281 L 7.6835938 17.144531 A 7 7 0 0 0 9 17.691406 L 9 18 L 9 18.740234 C 9.3290402 18.826203 9.6633795 18.890207 10 18.933594 L 10 17.925781 L 10 17.921875 L 10 17 L 10 16.910156 A 6 6 0 0 1 7.5273438 15.886719 L 7.4648438 15.949219 L 6.8144531 16.599609 L 6.8105469 16.603516 C 6.2742469 16.201456 5.7991075 15.72484 5.3984375 15.1875 L 5.4003906 15.185547 L 6.0507812 14.535156 L 6.1152344 14.470703 A 6 6 0 0 1 5.0859375 12 L 5 12 L 4.0800781 12 L 4.0761719 12 C 4.0273719 11.66955 4.0012 11.33491 4 11 C 4.0005 10.66455 4.0259187 10.33106 4.0742188 10 L 4.078125 10 L 5 10 L 5.0898438 10 A 6 6 0 0 1 6.1132812 7.5273438 L 6.0507812 7.4648438 L 5.4003906 6.8144531 L 5.3964844 6.8105469 C 5.7985544 6.2742469 6.27516 5.7991075 6.8125 5.3984375 L 6.8144531 5.4003906 L 7.4648438 6.0507812 L 7.5292969 6.1152344 A 6 6 0 0 1 10 5.0859375 L 10 5 L 10 4.0800781 L 10 4.0761719 C 10.33044 4.0273719 10.66509 4.0012 11 4 C 11.33491 4.0012 11.66956 4.0273719 12 4.0761719 L 12 4.0800781 L 12 5 L 12 5.0859375 A 6 6 0 0 1 14.470703 6.1152344 L 14.535156 6.0507812 L 15.185547 5.4003906 L 15.1875 5.3984375 C 15.72484 5.7991075 16.201446 6.2742469 16.603516 6.8105469 L 16.599609 6.8144531 L 15.949219 7.4648438 L 15.886719 7.5273438 A 6 6 0 0 1 16.910156 10 L 17 10 L 17.921875 10 L 17.925781 10 C 17.974081 10.33106 17.9995 10.66455 18 11 L 19 11 C 18.99813 10.32505 18.910854 9.65304 18.740234 9 L 17.705078 9 L 17.691406 9 A 7 7 0 0 0 17.144531 7.6835938 L 17.363281 7.4648438 L 17.884766 6.9433594 C 17.196716 5.7764094 16.223591 4.8032844 15.056641 4.1152344 L 14.324219 4.8476562 L 14.316406 4.8554688 A 7 7 0 0 0 13 4.3105469 L 13 4.2988281 L 13 3.265625 C 12.34721 3.092995 11.67521 3.004 11 3 z M 11 10 A 1 1 0 0 0 10 11 A 1 1 0 0 0 11 12 A 1 1 0 0 0 12 11 A 1 1 0 0 0 11 10 z M 18.009766 12 L 18.009766 13 L 17.009766 13 A 2.4999852 2.4999979 0 0 0 14.509766 15.5 A 1.5 1.5 0 0 1 13.009766 17 L 10.978516 17 L 10.978516 18 L 13.009766 18 A 2.4999852 2.4999979 0 0 0 15.509766 15.5 A 1.5 1.5 0 0 1 17.009766 14 L 18.009766 14 L 18.009766 15 L 20.009766 13.5 L 18.009766 12 z M 11 13 L 11 14 L 13.009766 14 A 1.5 1.5 0 0 1 13.767578 14.207031 C 13.894008 13.893491 14.070224 13.609386 14.277344 13.347656 A 2.4999852 2.4999979 0 0 0 13.009766 13 L 11 13 z M 18.009766 16 L 18.009766 17 L 17.009766 17 A 1.5 1.5 0 0 1 16.251953 16.792969 C 16.125523 17.106509 15.949307 17.390614 15.742188 17.652344 A 2.4999852 2.4999979 0 0 0 17.009766 18 L 18.009766 18 L 18.009766 19 L 20.009766 17.5 L 18.009766 16 z "
     class="ColorScheme-Text"
     />
</svg>

<svg xmlns="http://www.w3.org/2000/svg" viewBox="0 0 22 22">
<defs id="defs3051">
<style id="current-color-scheme" type="text/css">
.ColorScheme-Text{color:#dedede}
</style>
</defs>
<path d="M11 3a8 8 0 0 0-2 .266V4.31a7 7 0 0 0-1.316.544l-.008-.007-.733-.733a8 8 0 0 0-2.828 2.828l.522.522.218.219A7 7 0 0 0 4.31 9H3.26A8 8 0 0 0 3 11c.004.675.093 1.347.266 2H4.31a7 7 0 0 0 .544 1.316l-.218.22-.522.52a8 8 0 0 0 2.828 2.829l.522-.522.219-.218A7 7 0 0 0 9 17.69v1.049q.494.128 1 .194V16.91a6 6 0 0 1-2.473-1.023l-.062.062-.65.65-.004.005a7 7 0 0 1-1.413-1.416l.002-.002.65-.65.065-.065A6 6 0 0 1 5.085 12H4.077A7 7 0 0 1 4 11q.001-.503.074-1H5.09a6 6 0 0 1 1.023-2.473l-.062-.062-.65-.65-.005-.004a7 7 0 0 1 1.417-1.413l.001.002.65.65.065.065A6 6 0 0 1 10 5.085V4.077q.496-.074 1-.076.504.002 1 .076v1.01a6 6 0 0 1 2.47 1.03l.065-.065.65-.65.002-.003a7 7 0 0 1 1.417 1.413l-.004.003-.65.65-.063.063A6 6 0 0 1 16.91 10h1.016q.073.497.074 1h1a8 8 0 0 0-.26-2h-1.049a7 7 0 0 0-.546-1.316l.218-.22.522-.52a8 8 0 0 0-2.828-2.829l-.733.733-.008.007A7 7 0 0 0 13 4.311V3.266A8 8 0 0 0 11 3m0 7a1 1 0 0 0-1 1 1 1 0 0 0 1 1 1 1 0 0 0 1-1 1 1 0 0 0-1-1m7.01 2v1h-1a2.5 2.5 0 0 0-2.5 2.5 1.5 1.5 0 0 1-1.5 1.5h-2.031v1h2.03a2.5 2.5 0 0 0 2.5-2.5 1.5 1.5 0 0 1 1.5-1.5h1v1l2-1.5zM11 13v1h2.01a1.5 1.5 0 0 1 .758.207 3.5 3.5 0 0 1 .51-.86A2.5 2.5 0 0 0 13.01 13zm7.01 3v1h-1a1.5 1.5 0 0 1-.758-.207 3.5 3.5 0 0 1-.51.86A2.5 2.5 0 0 0 17.01 18h1v1l2-1.5z" class="ColorScheme-Text" style="fill:currentColor;fill-opacity:1;stroke:none"/>
</svg>
